Origami/64x64/apps/gpk-prefs.svg

<svg width="64" height="64" version="1" xmlns="http://www.w3.org/2000/svg">
 <path d="m4 56v2c0 1.662 1.338 3 3 3h50c1.662 0 3-1.338 3-3v-2c0 1.662-1.338 3-3 3h-50c-1.662 0-3-1.338-3-3z" style="opacity:.2"/>
 <rect transform="matrix(0,-1,-1,0,0,0)" x="-60" y="-60" width="56" height="56" rx="3" ry="3" style="fill:#f58411"/>
 <path d="m7 4c-1.662 0-3 1.338-3 3v1c0-1.662 1.338-3 3-3h50c1.662 0 3 1.338 3 3v-1c0-1.662-1.338-3-3-3h-50z" style="fill:#ffffff;opacity:.2"/>
 <path d="M 63.954,47.918 A 14,14 0 0 1 50,61 14,14 0 0 1 36.046,48.082 14,14 0 0 0 36,49 14,14 0 0 0 50,63 14,14 0 0 0 64,49 14,14 0 0 0 63.954,47.918 Z" style="fill-rule:evenodd;opacity:.2"/>
 <path d="m32.001953 14.999145c-1.682106-0.0174-3.352506 0.231581-4.974609 0.675781-7.553475 2.0262-13.081404 9.502172-12.966797 17.326172h-4.060547c2.069963 3.043664 6 8.998047 6 8.998047s6-9.000953 6-9.001953h-3.917969c-0.0144-3.2766 1.215348-6.571578 3.396485-9.017578 4.099458-4.9288 11.522763-6.980569 17.232422-2.792969 1.809993 2.3692 5.757599-0.319189 3.720703-2.662109-3.000188-2.33646-6.64185-3.517391-10.429688-3.525391zm15.998047 9s-6 8.999-6 9h3.917969c0.0144 3.2766-1.215348 6.573531-3.396485 9.019531-4.099458 4.9288-11.522762 6.980569-17.232422 2.792969-1.809993-2.3692-5.757599 0.319189-3.720703 2.662109 3.000188 2.33646 6.64185 3.517391 10.429688 3.525391 1.682106 0.0174 3.352506-0.231581 4.974609-0.675781 7.553475-2.0262 13.081404-9.502172 12.966797-17.326172h4.060547c-2.069963-3.043664-6-8.998047-6-8.998047z" style="opacity:.2"/>
 <path d="m32.001953 14c-1.682106-0.0174-3.352506 0.231581-4.974609 0.675781-7.553475 2.0262-13.081404 9.502172-12.966797 17.326172h-4.060547c2.069963 3.043664 6 8.998047 6 8.998047s6-9.000953 6-9.001953h-3.917969c-0.014401-3.2766 1.215348-6.571578 3.396485-9.017578 4.099458-4.9288 11.522763-6.980569 17.232422-2.792969 1.809993 2.3692 5.757599-0.319189 3.720703-2.662109-3.000188-2.33646-6.64185-3.517391-10.429688-3.525391zm15.998047 9s-6 8.999-6 9h3.917969c0.014401 3.2766-1.215348 6.573531-3.396485 9.019531-4.099458 4.9288-11.522762 6.980569-17.232422 2.792969-1.809993-2.3692-5.757599 0.319189-3.720703 2.662109 3.000188 2.33646 6.64185 3.517391 10.429688 3.525391 1.682106 0.0174 3.352506-0.231581 4.974609-0.675781 7.553475-2.0262 13.081404-9.502172 12.966797-17.326172h4.060547c-2.069963-3.043664-6-8.998047-6-8.998047z" style="fill:#ffffff"/>
 <circle cx="50" cy="48" r="14" style="fill-rule:evenodd;fill:#42a1cd"/>
 <path d="m48 40-0.1764 2.1072a6.2858 6.2858 0 0 0 -1.83704 1.06252l-1.91518-0.9018-2 3.4642 1.73882 1.2076a6.2858 6.2858 0 0 0 -0.096 1.06026 6.2858 6.2858 0 0 0 0.0914 1.06474l-1.73438 1.20312 2 3.4642 1.91072-0.89956a6.2858 6.2858 0 0 0 1.8415 1.0558l0.1764 2.1116h4l0.1764-2.1072a6.2858 6.2858 0 0 0 1.83708 -1.06252l1.91516 0.9018 2-3.4642-1.73884-1.2076a6.2858 6.2858 0 0 0 0.096 -1.06026 6.2858 6.2858 0 0 0 -0.0914 -1.06474l1.73438-1.20312-2-3.4642-1.91072 0.89956a6.2858 6.2858 0 0 0 -1.842 -1.056l-0.176-2.112h-4zm2 5.7144a2.2858 2.2858 0 0 1 2.286 2.286 2.2858 2.2858 0 0 1 -2.286 2.286 2.2858 2.2858 0 0 1 -2.286 -2.286 2.2858 2.2858 0 0 1 2.286 -2.286z" style="fill:#ffffff"/>
</svg>

<svg xmlns="http://www.w3.org/2000/svg" width="64" height="64" version="1">
 <path style="opacity:0.2" d="m 4,56 0,2 c 0,1.662 1.338,3 3,3 l 50,0 c 1.662,0 3,-1.338 3,-3 l 0,-2 c 0,1.662 -1.338,3 -3,3 L 7,59 C 5.338,59 4,57.662 4,56 Z"/>
 <rect style="fill:#f58411" width="56" height="56" x="-60" y="-60" rx="3" ry="3" transform="matrix(0,-1,-1,0,0,0)"/>
 <path style="opacity:0.2;fill:#ffffff" d="M 7 4 C 5.338 4 4 5.338 4 7 L 4 8 C 4 6.338 5.338 5 7 5 L 57 5 C 58.662 5 60 6.338 60 8 L 60 7 C 60 5.338 58.662 4 57 4 L 7 4 z"/>
 <path style="opacity:0.2;fill-rule:evenodd" d="M 63.954,47.918 A 14,14 0 0 1 50,61 14,14 0 0 1 36.046,48.082 14,14 0 0 0 36,49 14,14 0 0 0 50,63 14,14 0 0 0 64,49 14,14 0 0 0 63.954,47.918 Z"/>
 <path style="opacity:0.2" d="m 32.001953,14.999145 c -1.682106,-0.0174 -3.352506,0.231581 -4.974609,0.675781 -7.553475,2.0262 -13.081404,9.502172 -12.966797,17.326172 l -4.060547,0 c 2.069963,3.043664 6,8.998047 6,8.998047 0,0 6,-9.000953 6,-9.001953 l -3.917969,0 c -0.0144,-3.2766 1.215348,-6.571578 3.396485,-9.017578 4.099458,-4.9288 11.522763,-6.980569 17.232422,-2.792969 1.809993,2.3692 5.757599,-0.319189 3.720703,-2.662109 -3.000188,-2.33646 -6.64185,-3.517391 -10.429688,-3.525391 z m 15.998047,9 c 0,0 -6,8.999 -6,9 l 3.917969,0 c 0.0144,3.2766 -1.215348,6.573531 -3.396485,9.019531 -4.099458,4.9288 -11.522762,6.980569 -17.232422,2.792969 -1.809993,-2.3692 -5.757599,0.319189 -3.720703,2.662109 3.000188,2.33646 6.64185,3.517391 10.429688,3.525391 1.682106,0.0174 3.352506,-0.231581 4.974609,-0.675781 7.553475,-2.0262 13.081404,-9.502172 12.966797,-17.326172 l 4.060547,0 c -2.069963,-3.043664 -6,-8.998047 -6,-8.998047 z"/>
 <path style="fill:#ffffff" d="M 32.001953 14 C 30.319847 13.9826 28.649447 14.231581 27.027344 14.675781 C 19.473869 16.701981 13.94594 24.177953 14.060547 32.001953 L 10 32.001953 C 12.069963 35.045617 16 41 16 41 C 16 41 22 31.999047 22 31.998047 L 18.082031 31.998047 C 18.06763 28.721447 19.297379 25.426469 21.478516 22.980469 C 25.577974 18.051669 33.001279 15.9999 38.710938 20.1875 C 40.520931 22.5567 44.468537 19.868311 42.431641 17.525391 C 39.431453 15.188931 35.789791 14.008 32.001953 14 z M 48 23 C 48 23 42 31.999 42 32 L 45.917969 32 C 45.93237 35.2766 44.702621 38.573531 42.521484 41.019531 C 38.422026 45.948331 30.998722 48.0001 25.289062 43.8125 C 23.479069 41.4433 19.531463 44.131689 21.568359 46.474609 C 24.568547 48.811069 28.210209 49.992 31.998047 50 C 33.680153 50.0174 35.350553 49.768419 36.972656 49.324219 C 44.526131 47.298019 50.05406 39.822047 49.939453 31.998047 L 54 31.998047 C 51.930037 28.954383 48 23 48 23 z"/>
 <circle style="fill:#42a1cd;fill-rule:evenodd" cx="50" cy="48" r="14"/>
 <path style="fill:#ffffff" d="m 48,40 -0.1764,2.1072 a 6.2858,6.2858 0 0 0 -1.83704,1.06252 l -1.91518,-0.9018 -2,3.4642 1.73882,1.2076 a 6.2858,6.2858 0 0 0 -0.096,1.06026 6.2858,6.2858 0 0 0 0.0914,1.06474 l -1.73438,1.20312 2,3.4642 1.91072,-0.89956 a 6.2858,6.2858 0 0 0 1.8415,1.0558 l 0.1764,2.1116 4,0 0.1764,-2.1072 a 6.2858,6.2858 0 0 0 1.83708,-1.06252 l 1.91516,0.9018 2,-3.4642 -1.73884,-1.2076 a 6.2858,6.2858 0 0 0 0.096,-1.06026 6.2858,6.2858 0 0 0 -0.0914,-1.06474 l 1.73438,-1.20312 -2,-3.4642 -1.91072,0.89956 a 6.2858,6.2858 0 0 0 -1.842,-1.056 l -0.176,-2.112 -4,0 z m 2,5.7144 a 2.2858,2.2858 0 0 1 2.286,2.286 A 2.2858,2.2858 0 0 1 50,50.2864 2.2858,2.2858 0 0 1 47.714,48.0004 2.2858,2.2858 0 0 1 50,45.7144 Z"/>
</svg>
